X: 1
T: Sl\"angpolska fr\aan Sm\aaland
T: Sl\"angpolska efter Juringius
T: Polon\"as ur Sexdregasamlingen
%D:1693
C: arr. Bronwyn Bird
R: slang-polska
S: Fiddle Hell Online 2022-4-2 handout for Swedish Jam led by Bronwyn Bird and Justin Nawn
Z: 2022 John Chambers <jc:trillian.mit.edu>
M: 3/4
L: 1/8
K: Em
|:\
B2 EB EB | c>B AB cd | A2 DA DA | B>A GA Bc | B2 AG F>E |
D/E/F/D/ E4 :||: F2 B,F B,F | G>F EF GA | F2 B,F B,F |
G>F EF GA | A2 DA DA | B>A GA Bc | B2 AG F>E | D/E/F/D/ E4 :|
